X:1
T:Ballydesmond 2
M:2/4
O:Trad. (4.2.2015/NS)
L:1/8
R:polka
K:Ador
|: AB | "C"  cd/c/ "Em" Bc/B/ | "Am" AB/A/ "Em" G>A   | "G"  Bd      ed | g2>  d2    |
        "Am" ea         g>e   | "G"  dB         GA/B/ | "C"  ce "Em" dB | "Am" A2   :|
|: A2 | "Am" ea         ag/e/ | "G"  dg         g>d   | "Am" ea      ab | "Em" g2ed  |
        "Am" ea         g>e   | "G"  dB         GA/B/ | "C"  ce "Em" dB | "Am" A2   :|
